!!!!SEGMENT: pl-kk--kk-i-40--011-003_asola-giovanni-matteo--missa-primi-toni-sanctus.krn
!!!cenid: 16xx:1321
!!!COM: Asola, Giovanni Matteo
!!!COM-rismid: pe20000387
!!!CDT: <=1532-1609/10/01
!!!CNT: Italian
!!!OTL: Missa primi toni – Sanctus
!!!PDT:
!!!AGN: Sacred; Mass
!!!SMS-siglum: PL-Kk
!!!SMS-shelfmark: Kk.I.40
!!!SMS-shelfwork: 011-003 M
!!!SMS-variant:
!!!SMS-altvar:
!!!NIFC-rismid: 1001154533
!!!URL-scan: http://repozytorium.nifc.pl/skany/pl-kk-nut--i-40
!!!ONB-nifc: UWAGA: części Mszy: 1. Kyrie, 2. Et in terra, 3. Sanctus, 4. Agnus Dei. Skan 0014-0016
**kern	**text
*I"Baſso Ripieno.	*
*clefF4	*
*k[]	*
*d:	*
*M2/1	*
*met(C|)	*
=1-	=1-
00r	.
=2-	=2-
.	.
=3-	=3-
!LO:TX:t=P:problem:kreska pseudotaktowa	!
1r	.
1AA	San-
=4-	=4-
2.C/	.
4D/	.
1E	.
=5-	=5-
!LO:TX:t=P:problem:kreska pseudotaktowa	!
1AA	-ctus
!LO:TX:a:t=1.	!
1r	.
=6-	=6-
*	*ij
1D	San-
*2\right	*
2.F\	.
4G\	.
=7-	=7-
1A	.
!LO:TX:t=P:problem:kreska pseudotaktowa	!
1D	-ctus
*	*Xij
=8-	=8-
2r	.
(2.D\	San-
4E\	.
!LO:TX:t=P:problem:kreska pseudotaktowa	!
2F\)	.
=9-	=9-
2C/	.
2D/	.
*lig	*
1AA	.
=10-	=10-
1D	.
*Xlig	*
!LO:TX:t=P:problem:kreska pseudotaktowa	!
1AA	-ctus
=11-	=11-
0r	.
=12-	=12-
!LO:TX:t=P:problem:kreska pseudotaktowa	!
1r	.
2r	.
2.D\	Do-
=13-	=13-
.	.
4D\	-mi-
!LO:TX:t=P:problem:kreska pseudotaktowa	!
2E\	-n(us)
2C/	De-
!LO:TX:t=P:problem:kreska pseudotaktowa	!
!LO:TX:t=P:problem:oddech jako rozdzielacz słów:global	!
2D,</	-us
=14-	=14-
2.E\	Sab-
4E\	-ba-
!LO:TX:t=P:problem:kreska pseudotaktowa	!
1D	-oth
=15-	=15-
!LO:TX:t=P:problem:kreska pseudotaktowa	!
1r	.
!LO:LB:g=original	!
2r	.
*	*ij
2.D\	Do-
=16-	=16-
.	.
4D\	-mi-
!LO:TX:t=P:problem:kreska pseudotaktowa	!
2E\	-n(us)
2C/	De-
2D,</	-us
=17-	=17-
2.A\	Sab-
4AA/	-ba-
!LO:TX:t=P:problem:kreska pseudotaktowa	!
1D	-oth
*	*Xij
=18-	=18-
00r	.
=19-	=19-
.	.
=20-	=20-
2r	.
!LO:TX:t=P:problem:kreska pseudotaktowa	!
2D\	Ple-
2F,<\	-ni
2G\	sunt
=21-	=21-
1A	cae-
2D,</	-li
2E\	et
=22-	=22-
2C/	ter-
!LO:TX:t=P:problem:kreska pseudotaktowa:między nutą a kropką	!
[<2D/	.
!LO:N:xstem:cue	!
4D]	.
4C/	.
4BB-X/	.
4AA/	.
=23-	=23-
1BBny	.
!LO:TX:t=P:problem:kreska pseudotaktowa	!
1AA	-ra
=24-	=24-
0r	.
=25-	=25-
!LO:TX:t=P:problem:kreska pseudotaktowa	!
1r	.
2r	.
2D\	Ple-
=26-	=26-
2F\	-ni
!LO:TX:t=P:problem:kreska pseudotaktowa	!
2G\	sunt
1A	cae-
=27-	=27-
2D,</	-li
!LO:TX:t=P:problem:kreska pseudotaktowa:między nutą a kropką	!
[<2F\	et
!LO:N:xstem:cue	!
4F]	.
4E/	.
1C/	.
=28-	=28-
.	.
2D/	.
1AA	ter-
=29-	=29-
!LO:TX:t=P:problem:kreska pseudotaktowa	!
1D	-ra
!LO:TX:t=P:problem:kreska pseudotaktowa	!
!LO:LB:g=original	!
0r	.
=30-	=30-
.	.
2.AA/	glo-
!LO:TX:t=P:problem:kreska pseudotaktowa	!
4BB/	.
=31-	=31-
2.C/	.
!LO:TX:t=P:problem:kreska pseudotaktowa	!
4D/	.
1E	.
=32-	=32-
2C/	-ri-
2D/	-â
1AA	tu-
=33-	=33-
!LO:TX:t=P:problem:kreska pseudotaktowa	!
1D	-â
1r	.
=34-	=34-
*	*ij
1D	glo-
2C/	-ri-
2AA/	-â
=35-	=35-
1C	tu-
2GG,</	-â
*	*Xij
2.C/	glo-
=36-	=36-
.	.
4C/	-ri-
!LO:TX:t=P:problem:kreska pseudotaktowa	!
2D\	-a
1AA	tu-
=37-	=37-
2D,<\	-â
2.F\	glo-
4F\	-ri-
1D\	.
=38-	=38-
.	.
!LO:TX:t=P:problem:kreska pseudotaktowa	!
2C#X/	-â
1D	tu-
=39-	=39-
0AA;	-â.
=40||-	=40||-
*M2/1	*
*met(C|)	*
1A	O-
2G\	-san-
2E\	-na
=41-	=41-
2F\	in
2G\	ex-
*lig	*
1A	-cel-
=42-	=42-
1E	.
*Xlig	*
!LO:TX:t=P:problem:kreska pseudotaktowa	!
1AA	-ſis
=43-	=43-
!LO:LB:g=original	!
00r	.
=44-	=44-
.	.
=45-	=45-
!LO:TX:t=P:problem:kreska pseudotaktowa	!
0r	.
=46-	=46-
2r	.
!LO:TX:t=P:problem:kreska pseudotaktowa	!
2E\	O-
2A\	-san-
!LO:TX:t=P:problem:kreska pseudotaktowa	!
2D\	-na
=47-	=47-
2E\	in
2Cny/	ex-
!LO:TX:t=P:problem:kreska pseudotaktowa	!
1D	-cel-
=48-	=48-
2E,<\	-ſis
*	*ij
2AA/	O-
2D/	-san-
!LO:TX:t=P:problem:kreska pseudotaktowa	!
2C/	-na
=49-	=49-
2.F\	in
4G\	.
2A\	.
!LO:TX:t=P:problem:kreska pseudotaktowa	!
2E\	ex-
=50-	=50-
*lig	*
1F	-cel-
1E	.
*Xlig	*
=51-	=51-
!LO:TX:t=P:problem:kreska pseudotaktowa	!
1AA,<	-ſis
*	*Xij
1r	.
=52-	=52-
!LO:TX:t=P:problem:kreska pseudotaktowa	!
1AA	O-
2.E\	-san-
4E\	-na
=53-	=53-
2D/	in
!LO:TX:t=P:problem:kreska pseudotaktowa	!
2BB/	ex-
(2C/	-cel-
2D/)	.
=54-	=54-
!LO:TX:t=P:problem:kreska pseudotaktowa	!
1AA	-ſis
2r	.
2D\	O-
=55-	=55-
2.A\	-san-
!LO:TX:t=P:problem:kreska pseudotaktowa	!
4A\	-na
!LO:LB:g=original	!
2G\	in
2E\	ex-
=56-	=56-
2F\	-cel-
2D\	-ſis
!LO:TX:t=P:problem:kreska pseudotaktowa	!
1A	.
=57-	=57-
1r	.
*	*ij
1AA	O-
=58-	=58-
2.E\	-san-
!LO:TX:t=P:problem:kreska pseudotaktowa	!
4E\	-na
2D/	in
2BB/	ex-
=59-	=59-
2C/	-cel-
2D/	-ſis
*	*Xij
!LO:TX:t=P:problem:kreska pseudotaktowa	!
1AA	.
=60-	=60-
2r	.
2D\	O-
2.F\	-san-
4F\	-na
=61-	=61-
2E\	in
!LO:TX:t=P:problem:kreska pseudotaktowa	!
2C/	ex-
(2D\	-cel-
2E\)	.
=62-	=62-
2AA,</	-ſis
*	*ij
2E\	O-
2.F\	-san-
!LO:TX:t=P:problem:kreska pseudotaktowa	!
4F\	-na
=63-	=63-
1.C	in
2GG/	ex-
=64-	=64-
*lig	*
1D	-cel-
1AA	.
*Xlig	*
=65-	=65-
!LO:TX:a:B:t=Benedict.\nTacet.\nOsanna da Ca	!
0D;	-ſis
*	*Xij
=-	=-
*-	*-
!!!RDF**kern: < = below
!!!RDF**kern: > = above
!!!ENC: Marta Chmielewska
!!!END: 2021-08-03
!!!ENC: Katarzyna Serwa
!!!END: 2021-07-05
